X: 4429
T: Bonnie Banchory
R: reel
M: 4/4
K: Gmajor
GA|:BAGF GABc|d^cde d2 GA|BAGF GBdB|A2D2D2 GA|
BAGF GABc|d^cde d2 BA|GEAG FDdc|1 B2G2G2 GA:|2 B2G2G2 Bc||
|:dBed cAdc|B2G2G2 Bc|dBed ^cAag|f2d2d2 Bc|
dBed cAdc|BGcB AFBA|GEAG FDdc|1 B2G2G2 Bc:|2 B2G2G2 GA||

